img/cosmetics/ollin.svg

<svg xmlns="http://www.w3.org/2000/svg" width="496" height="175" viewBox="0 0 496 175" fill="none">
	<path d="M0 53.5833C0 38.2917 5.12743 25.5417 15.3823 15.3333C25.6371 5.125 38.9475 0 55.3134 0C71.6793 0 84.7176 4.875 95.0771 14.6458C105.437 24.4167 110.606 37.3958 110.606 53.5625C110.606 69.7292 105.374 81.9792 94.9306 92.0417C84.4665 102.104 71.2608 107.146 55.3134 107.146C39.3661 107.146 25.9092 102.271 15.5497 92.5C5.16928 82.7292 0 69.75 0 53.5833ZM25.2814 53.5833C25.2814 62.4583 28.2113 69.9167 34.0503 75.9375C39.8893 81.9583 46.984 84.9583 55.3134 84.9583C64.8358 84.9583 72.2025 82.0208 77.4555 76.1458C82.7085 70.2708 85.3246 62.75 85.3246 53.5833C85.3246 44.4167 82.4574 36.7708 76.7021 30.9375C70.9468 25.125 63.8103 22.2083 55.2925 22.2083C46.7747 22.2083 39.387 25.0833 33.7364 30.875C28.0857 36.6667 25.2604 44.2292 25.2604 53.5833H25.2814Z" fill="#141414"></path>
	<path d="M144.656 105.375V1.77051H168.452V83.1663H210.831V105.375H144.677H144.656Z" fill="#141414"></path>
	<path d="M240.236 105.375V1.77051H264.032V83.1663H306.412V105.375H240.257H240.236Z" fill="#141414"></path>
	<path d="M337.469 105.375V1.77051H361.264V105.375H337.469Z" fill="#141414"></path>
	<path d="M494.913 105.375H475.889L426.54 43.2288V105.375H404.23V1.77051H423.254L472.603 64.2288V1.77051H494.913V105.375Z" fill="#141414"></path>
	<path d="M17.8723 172.895H14.3145V143.729C14.8377 143.729 16.0934 143.729 18.0606 143.687C20.0279 143.666 21.3254 143.646 21.9742 143.646C25.825 143.646 28.5875 144.5 30.2827 146.208C31.9779 147.916 32.815 150.083 32.815 152.687C32.815 155.291 31.8942 157.416 30.0734 159.187C28.2527 160.958 25.6366 161.854 22.2672 161.854C20.6557 161.854 19.1907 161.791 17.8723 161.687V172.895ZM22.3091 146.979C21.1999 146.979 19.7139 147 17.8723 147.062V158.312C19.4628 158.458 20.8859 158.521 22.1416 158.521C24.2972 158.521 25.9715 158 27.2063 156.958C28.441 155.916 29.048 154.479 29.048 152.646C29.048 150.812 28.4829 149.479 27.3737 148.479C26.2645 147.479 24.5693 146.979 22.3091 146.979Z" fill="#141414"></path>
	<path d="M58.3469 172.895H54.7891V143.729C55.396 143.729 56.8191 143.729 59.0166 143.687C61.214 143.666 62.4279 143.646 62.6581 143.646C69.6063 143.646 73.0804 146.541 73.0804 152.312C73.0804 154.458 72.4525 156.25 71.2178 157.708C69.983 159.166 68.4761 160.125 66.7182 160.562L76.4708 172.895H72.1177L63.1185 161.229H58.3469V172.895ZM62.4488 146.979C61.5489 146.979 60.1886 147 58.3469 147.062V157.896H62.6581C64.437 157.896 66.0066 157.396 67.3251 156.375C68.6436 155.354 69.3133 154.021 69.3133 152.354C69.3133 148.771 67.0321 146.979 62.4488 146.979Z" fill="#141414"></path>
	<path d="M93.7598 158.312C93.7598 154.062 95.162 150.5 97.9873 147.625C100.813 144.75 104.37 143.312 108.703 143.312C113.035 143.312 116.572 144.708 119.397 147.521C122.222 150.333 123.645 153.917 123.645 158.312C123.645 162.708 122.222 166.187 119.376 169.042C116.53 171.896 112.972 173.313 108.703 173.313C104.433 173.313 100.834 171.917 98.0082 169.104C95.1829 166.292 93.7598 162.708 93.7598 158.312ZM97.5269 158.312C97.5269 161.625 98.5942 164.396 100.75 166.625C102.905 168.854 105.542 169.979 108.703 169.979C111.863 169.979 114.688 168.875 116.76 166.646C118.832 164.417 119.878 161.646 119.878 158.312C119.878 154.979 118.811 152.167 116.655 149.958C114.5 147.75 111.863 146.646 108.703 146.646C105.542 146.646 102.822 147.75 100.708 149.938C98.5942 152.125 97.5269 154.917 97.5269 158.312Z" fill="#141414"></path>
	<path d="M145.619 172.896V143.729H162.152V147.063H149.177V157.396H160.897V160.729H149.177V172.896H145.619Z" fill="#141414"></path>
	<path d="M183.666 172.896V143.729H200.199V147.063H187.224V156.479H198.944V159.813H187.224V169.563H200.618V172.896H183.666Z" fill="#141414"></path>
	<path d="M235.882 165.438C235.882 164.458 235.61 163.625 235.087 162.896C234.563 162.167 233.873 161.583 233.036 161.125C232.199 160.667 231.278 160.229 230.252 159.812C229.227 159.396 228.222 158.937 227.197 158.458C226.171 157.979 225.25 157.417 224.413 156.812C223.576 156.208 222.886 155.396 222.362 154.396C221.839 153.396 221.567 152.25 221.567 150.937C221.567 148.771 222.362 146.958 223.953 145.5C225.543 144.042 227.699 143.312 230.399 143.312C232.073 143.312 233.622 143.583 235.066 144.146C236.51 144.708 237.64 145.437 238.477 146.354L236.552 149.021C234.961 147.437 232.973 146.646 230.608 146.646C228.997 146.646 227.699 147.042 226.757 147.812C225.815 148.583 225.334 149.625 225.334 150.937C225.334 151.917 225.606 152.75 226.129 153.479C226.653 154.208 227.343 154.792 228.18 155.229C229.017 155.667 229.938 156.104 230.964 156.5C231.989 156.896 232.994 157.333 234.019 157.812C235.045 158.292 235.966 158.812 236.803 159.417C237.64 160.021 238.331 160.833 238.854 161.854C239.377 162.875 239.649 164.062 239.649 165.396C239.649 167.75 238.728 169.667 236.907 171.125C235.087 172.583 232.806 173.313 230.106 173.313C228.201 173.313 226.36 172.917 224.581 172.125C222.802 171.333 221.546 170.271 220.855 168.937L222.906 166.521C223.744 167.604 224.832 168.458 226.171 169.063C227.511 169.667 228.829 169.979 230.148 169.979C231.759 169.979 233.119 169.583 234.229 168.771C235.338 167.958 235.882 166.854 235.882 165.438Z" fill="#141414"></path>
	<path d="M274.329 165.438C274.329 164.458 274.057 163.625 273.534 162.896C273.011 162.167 272.32 161.583 271.483 161.125C270.646 160.667 269.725 160.229 268.7 159.812C267.674 159.396 266.669 158.937 265.644 158.458C264.619 157.979 263.698 157.417 262.861 156.812C262.023 156.208 261.333 155.396 260.81 154.396C260.286 153.396 260.014 152.25 260.014 150.937C260.014 148.771 260.81 146.958 262.4 145.5C263.991 144.042 266.146 143.312 268.846 143.312C270.52 143.312 272.069 143.583 273.513 144.146C274.957 144.708 276.087 145.437 276.924 146.354L274.999 149.021C273.408 147.437 271.42 146.646 269.055 146.646C267.444 146.646 266.146 147.042 265.205 147.812C264.263 148.583 263.781 149.625 263.781 150.937C263.781 151.917 264.053 152.75 264.577 153.479C265.1 154.208 265.791 154.792 266.628 155.229C267.465 155.667 268.386 156.104 269.411 156.5C270.437 156.896 271.441 157.333 272.467 157.812C273.492 158.292 274.413 158.812 275.25 159.417C276.087 160.021 276.778 160.833 277.301 161.854C277.824 162.875 278.096 164.062 278.096 165.396C278.096 167.75 277.175 169.667 275.355 171.125C273.534 172.583 271.253 173.313 268.553 173.313C266.649 173.313 264.807 172.917 263.028 172.125C261.249 171.333 259.993 170.271 259.303 168.937L261.354 166.521C262.191 167.604 263.279 168.458 264.619 169.063C265.958 169.667 267.276 169.979 268.595 169.979C270.206 169.979 271.567 169.583 272.676 168.771C273.785 167.958 274.329 166.854 274.329 165.438Z" fill="#141414"></path>
	<path d="M300.928 172.896V143.729H304.486V172.896H300.928Z" fill="#141414"></path>
	<path d="M327.299 158.312C327.299 154.062 328.701 150.5 331.526 147.625C334.352 144.75 337.909 143.312 342.242 143.312C346.574 143.312 350.111 144.708 352.936 147.521C355.761 150.333 357.184 153.917 357.184 158.312C357.184 162.708 355.761 166.187 352.915 169.042C350.069 171.896 346.511 173.313 342.242 173.313C337.972 173.313 334.373 171.917 331.547 169.104C328.722 166.292 327.299 162.708 327.299 158.312ZM331.066 158.312C331.066 161.625 332.133 164.396 334.289 166.625C336.444 168.854 339.081 169.979 342.242 169.979C345.402 169.979 348.227 168.875 350.299 166.646C352.371 164.417 353.417 161.646 353.417 158.312C353.417 154.979 352.35 152.167 350.194 149.958C348.039 147.75 345.402 146.646 342.242 146.646C339.081 146.646 336.361 147.75 334.247 149.938C332.133 152.125 331.066 154.917 331.066 158.312Z" fill="#141414"></path>
	<path d="M403.603 172.896H400.757L382.466 149.979V172.896H379.117V143.729H381.963L400.255 166.729V143.729H403.603V172.896Z" fill="#141414"></path>
	<path d="M424.072 172.896L436.671 143.562H439.727L452.325 172.896H448.516L444.749 164.062H431.397L427.672 172.896H424.072ZM438.094 148.271L432.82 160.729H443.368L438.094 148.271Z" fill="#141414"></path>
	<path d="M472.916 172.896V143.729H476.474V169.563H490.914V172.896H472.916Z" fill="#141414"></path>
</svg>

<svg xmlns="http://www.w3.org/2000/svg" width="496" height="175" fill="none"><path d="M0 53.583c0-15.291 5.127-28.041 15.382-38.25C25.637 5.125 38.948 0 55.313 0 71.68 0 84.718 4.875 95.077 14.646c10.36 9.77 15.529 22.75 15.529 38.916 0 16.167-5.232 28.417-15.675 38.48-10.465 10.062-23.67 15.104-39.618 15.104-15.947 0-29.404-4.875-39.763-14.646C5.17 82.73 0 69.75 0 53.583Zm25.281 0c0 8.875 2.93 16.334 8.77 22.355 5.838 6.02 12.933 9.02 21.262 9.02 9.523 0 16.89-2.937 22.142-8.812 5.254-5.875 7.87-13.396 7.87-22.563 0-9.166-2.868-16.812-8.623-22.645-5.755-5.813-12.892-8.73-21.41-8.73-8.517 0-15.905 2.875-21.556 8.667-5.65 5.792-8.476 13.354-8.476 22.708h.021ZM144.656 105.375V1.771h23.796v81.395h42.379v22.209h-66.175ZM240.236 105.375V1.771h23.796v81.395h42.38v22.209h-66.176ZM337.469 105.375V1.771h23.795v103.604h-23.795ZM494.913 105.375h-19.024L426.54 43.229v62.146h-22.31V1.771h19.024l49.349 62.458V1.77h22.31v103.604ZM17.872 172.895h-3.557v-29.166c.523 0 1.778 0 3.746-.042 1.967-.021 3.264-.041 3.913-.041 3.851 0 6.613.854 8.309 2.562 1.695 1.708 2.532 3.875 2.532 6.479s-.92 4.729-2.742 6.5c-1.82 1.771-4.436 2.667-7.806 2.667-1.611 0-3.076-.063-4.395-.167v11.208Zm4.437-25.916c-1.11 0-2.595.021-4.437.083v11.25a46.9 46.9 0 0 0 4.27.209c2.155 0 3.83-.521 5.064-1.563 1.235-1.042 1.842-2.479 1.842-4.312 0-1.834-.565-3.167-1.674-4.167-1.11-1-2.805-1.5-5.065-1.5ZM58.347 172.895h-3.558v-29.166c.607 0 2.03 0 4.228-.042 2.197-.021 3.41-.041 3.641-.041 6.948 0 10.422 2.895 10.422 8.666 0 2.146-.627 3.938-1.862 5.396-1.235 1.458-2.742 2.417-4.5 2.854l9.753 12.333h-4.353l-9-11.666h-4.771v11.666Zm4.102-25.916c-.9 0-2.26.021-4.102.083v10.834h4.311c1.779 0 3.349-.5 4.667-1.521 1.319-1.021 1.988-2.354 1.988-4.021 0-3.583-2.28-5.375-6.864-5.375ZM93.76 158.312c0-4.25 1.402-7.812 4.227-10.687 2.826-2.875 6.383-4.313 10.716-4.313 4.332 0 7.869 1.396 10.694 4.209 2.825 2.812 4.248 6.396 4.248 10.791 0 4.396-1.423 7.875-4.269 10.73-2.846 2.854-6.404 4.271-10.673 4.271-4.27 0-7.869-1.396-10.695-4.209-2.825-2.812-4.248-6.396-4.248-10.792Zm3.767 0c0 3.313 1.067 6.084 3.223 8.313 2.155 2.229 4.792 3.354 7.953 3.354 3.16 0 5.985-1.104 8.057-3.333s3.118-5 3.118-8.334c0-3.333-1.067-6.145-3.223-8.354-2.155-2.208-4.792-3.312-7.952-3.312-3.161 0-5.881 1.104-7.995 3.292-2.114 2.187-3.181 4.979-3.181 8.374ZM145.619 172.896v-29.167h16.533v3.334h-12.975v10.333h11.72v3.333h-11.72v12.167h-3.558ZM183.666 172.896v-29.167h16.533v3.334h-12.975v9.416h11.72v3.334h-11.72v9.75h13.394v3.333h-16.952ZM235.882 165.438c0-.98-.272-1.813-.795-2.542-.524-.729-1.214-1.313-2.051-1.771a26.817 26.817 0 0 0-2.784-1.313 64.633 64.633 0 0 1-3.055-1.354 17.067 17.067 0 0 1-2.784-1.646c-.837-.604-1.527-1.416-2.051-2.416-.523-1-.795-2.146-.795-3.459 0-2.166.795-3.979 2.386-5.437 1.59-1.458 3.746-2.188 6.446-2.188 1.674 0 3.223.271 4.667.834 1.444.562 2.574 1.291 3.411 2.208l-1.925 2.667c-1.591-1.584-3.579-2.375-5.944-2.375-1.611 0-2.909.396-3.851 1.166-.942.771-1.423 1.813-1.423 3.125 0 .98.272 1.813.795 2.542a5.776 5.776 0 0 0 2.051 1.75c.837.438 1.758.875 2.784 1.271 1.025.396 2.03.833 3.055 1.312 1.026.48 1.947 1 2.784 1.605.837.604 1.528 1.416 2.051 2.437.523 1.021.795 2.208.795 3.542 0 2.354-.921 4.271-2.742 5.729-1.82 1.458-4.101 2.188-6.801 2.188-1.905 0-3.746-.396-5.525-1.188-1.779-.792-3.035-1.854-3.726-3.188l2.051-2.416c.838 1.083 1.926 1.937 3.265 2.542 1.34.604 2.658.916 3.977.916 1.611 0 2.971-.396 4.081-1.208 1.109-.813 1.653-1.917 1.653-3.333ZM274.329 165.438c0-.98-.272-1.813-.795-2.542-.523-.729-1.214-1.313-2.051-1.771a26.894 26.894 0 0 0-2.783-1.313 64.213 64.213 0 0 1-3.056-1.354 17.099 17.099 0 0 1-2.783-1.646c-.838-.604-1.528-1.416-2.051-2.416-.524-1-.796-2.146-.796-3.459 0-2.166.796-3.979 2.386-5.437 1.591-1.458 3.746-2.188 6.446-2.188 1.674 0 3.223.271 4.667.834 1.444.562 2.574 1.291 3.411 2.208l-1.925 2.667c-1.591-1.584-3.579-2.375-5.944-2.375-1.611 0-2.909.396-3.85 1.166-.942.771-1.424 1.813-1.424 3.125 0 .98.272 1.813.796 2.542.523.729 1.214 1.313 2.051 1.75.837.438 1.758.875 2.783 1.271 1.026.396 2.03.833 3.056 1.312 1.025.48 1.946 1 2.783 1.605.837.604 1.528 1.416 2.051 2.437.523 1.021.795 2.208.795 3.542 0 2.354-.921 4.271-2.741 5.729-1.821 1.458-4.102 2.188-6.802 2.188-1.904 0-3.746-.396-5.525-1.188-1.779-.792-3.035-1.854-3.725-3.188l2.051-2.416c.837 1.083 1.925 1.937 3.265 2.542 1.339.604 2.657.916 3.976.916 1.611 0 2.972-.396 4.081-1.208 1.109-.813 1.653-1.917 1.653-3.333ZM300.928 172.896v-29.167h3.558v29.167h-3.558ZM327.299 158.312c0-4.25 1.402-7.812 4.227-10.687 2.826-2.875 6.383-4.313 10.716-4.313 4.332 0 7.869 1.396 10.694 4.209 2.825 2.812 4.248 6.396 4.248 10.791 0 4.396-1.423 7.875-4.269 10.73-2.846 2.854-6.404 4.271-10.673 4.271-4.27 0-7.869-1.396-10.695-4.209-2.825-2.812-4.248-6.396-4.248-10.792Zm3.767 0c0 3.313 1.067 6.084 3.223 8.313 2.155 2.229 4.792 3.354 7.953 3.354 3.16 0 5.985-1.104 8.057-3.333s3.118-5 3.118-8.334c0-3.333-1.067-6.145-3.223-8.354-2.155-2.208-4.792-3.312-7.952-3.312-3.161 0-5.881 1.104-7.995 3.292-2.114 2.187-3.181 4.979-3.181 8.374ZM403.603 172.896h-2.846l-18.291-22.917v22.917h-3.349v-29.167h2.846l18.292 23v-23h3.348v29.167ZM424.072 172.896l12.599-29.334h3.056l12.598 29.334h-3.809l-3.767-8.834h-13.352l-3.725 8.834h-3.6Zm14.022-24.625-5.274 12.458h10.548l-5.274-12.458ZM472.916 172.896v-29.167h3.558v25.834h14.44v3.333h-17.998Z" fill="#141414"/></svg>
